src/components/Icon/assets/triangle-right-circle-filled.svg

<svg width="24" height="24" viewBox="0 0 24 24" fill="none" xmlns="http://www.w3.org/2000/svg">
<path fill-rule="evenodd" clip-rule="evenodd" d="M10.2658 16.6666C10.2508 16.6666 10.2378 16.6606 10.2228 16.6586C10.1688 16.6526 10.1188 16.6326 10.0758 16.6006C10.0608 16.5896 10.0468 16.5786 10.0348 16.5656C9.98778 16.5146 9.95178 16.4506 9.95178 16.3706V7.6516C9.95178 7.5716 9.98778 7.5076 10.0348 7.4566C10.0468 7.4426 10.0608 7.4326 10.0758 7.4216C10.1188 7.3896 10.1688 7.3696 10.2228 7.3626C10.2378 7.3616 10.2508 7.3546 10.2658 7.3556C10.3278 7.3586 10.3898 7.3756 10.4438 7.4206L15.6748 11.7806C15.8188 11.9006 15.8188 12.1216 15.6748 12.2416L10.4438 16.6016C10.3898 16.6456 10.3278 16.6636 10.2658 16.6666M11.9998 1.9996C6.47676 1.9996 1.99976 6.4776 1.99976 11.9996C1.99976 17.5226 6.47676 21.9996 11.9998 21.9996C17.5228 21.9996 21.9998 17.5226 21.9998 11.9996C21.9998 6.4776 17.5228 1.9996 11.9998 1.9996" fill="#65676A"/>
</svg>

<svg xmlns="http://www.w3.org/2000/svg" width="24" height="24" viewBox="0 0 24 24">
    <path fill="#65676A" fill-rule="evenodd" d="M10.266 16.667c-.015 0-.028-.006-.043-.008-.054-.006-.104-.026-.147-.058-.015-.011-.03-.022-.041-.035-.047-.051-.083-.115-.083-.195V7.65c0-.08.036-.143.083-.194.012-.014.026-.024.04-.035.044-.032.094-.052.148-.06.015 0 .028-.007.043-.006.062.003.124.02.178.065l5.23 4.36c.145.12.145.34 0 .46l-5.23 4.36c-.054.045-.116.063-.178.066M12 2C6.477 2 2 6.478 2 12c0 5.523 4.477 10 10 10s10-4.477 10-10c0-5.522-4.477-10-10-10"/>
</svg>
